tools/download-figma-icons/icons/outlined-medium/keys.svg

<svg width="24" height="24" viewBox="0 0 24 24" fill="none" xmlns="http://www.w3.org/2000/svg">
<path fill-rule="evenodd" clip-rule="evenodd" d="M11.507 9.9547C11.5078 9.95395 11.5078 9.95245 11.5078 9.9517C11.7335 8.3572 10.7683 6.7102 9.30951 6.20245C8.91201 6.06445 8.52876 6.0052 8.17101 6.0052C7.55976 6.0052 7.03101 6.18295 6.60951 6.42145C7.09626 7.0792 7.81026 7.5022 8.56176 7.5022C8.56488 7.5022 8.56773 7.50229 8.57047 7.50238C8.57562 7.50254 8.58037 7.50269 8.58576 7.5022C8.58651 7.5022 8.58726 7.50258 8.58801 7.50295C8.58876 7.50333 8.58951 7.5037 8.59026 7.5037C8.59214 7.5037 8.59401 7.50333 8.59589 7.50295C8.59776 7.50258 8.59964 7.5022 8.60151 7.5022C9.22251 7.5022 9.72651 8.0062 9.72651 8.6272C9.72651 9.24895 9.22251 9.7522 8.60151 9.7522C8.04651 9.7522 7.58676 9.3487 7.49526 8.8192C6.74451 8.58145 6.05751 8.11795 5.53251 7.4782C5.21226 8.0092 5.03601 8.6392 5.05401 9.31495C5.07876 10.2847 5.53251 11.2635 6.23976 11.868C6.47076 12.066 6.55926 12.3847 6.46326 12.6735L3.74826 20.8567L4.19526 21.6675L5.05251 21.291L5.17401 20.8365L5.59776 19.5585L5.16576 18.756C5.06676 18.5715 5.04951 18.354 5.11701 18.156C5.18526 17.958 5.33301 17.7975 5.52426 17.7135L6.33051 17.3595L6.40626 17.13L6.03276 16.0507C5.92026 15.7252 6.04326 15.3652 6.33126 15.177L7.25826 14.571L7.72401 13.1557C7.82376 12.8542 8.10201 12.648 8.41926 12.6405C10.0003 12.603 11.2993 11.4735 11.507 9.9547ZM7.45326 0.82422C10.2793 0.42147 11.7598 1.80897 12.2015 3.45222C12.2015 3.45222 11.7208 3.29697 10.6265 3.37722C10.5448 3.05922 9.78651 1.92072 7.69776 2.30397C7.11801 2.41047 6.65976 2.69172 6.35676 3.14097C6.02451 3.63372 5.91426 4.31547 6.02901 5.02797C7.00476 4.52922 8.33676 4.27572 9.80376 4.78647C11.9495 5.53347 13.3205 7.84422 12.9928 10.1617C12.7078 12.2355 11.0645 13.8187 8.99301 14.0977L8.60151 15.2895C8.54826 15.4507 8.44176 15.5895 8.29926 15.6825L7.64151 16.1122L7.90701 16.8795C7.96101 17.0355 7.96251 17.205 7.91076 17.3617L7.64826 18.1492C7.58151 18.3502 7.43226 18.5137 7.23876 18.5992L6.87126 18.7605L7.07226 19.1317C7.16976 19.314 7.18851 19.5277 7.12326 19.7235L6.43401 21.8062C6.30501 22.1947 6.02001 22.5067 5.65101 22.6657L4.54551 23.1517C4.38651 23.217 4.22301 23.2485 4.06326 23.2485C3.62826 23.2485 3.22026 23.0175 3.00576 22.6177L2.42001 21.5205C2.23401 21.1807 2.19801 20.7637 2.32551 20.3827L4.89126 12.6495C4.07751 11.7765 3.58551 10.5787 3.55401 9.35397C3.52176 8.08422 3.94926 6.89322 4.73826 6.01797C4.73462 6.00728 4.73098 5.9966 4.72733 5.98591C4.67164 5.82265 4.61596 5.65943 4.58076 5.48697C4.33401 4.30872 4.52301 3.17772 5.11326 2.30247C5.64426 1.51497 6.44676 0.96747 7.45326 0.82422ZM19.8889 19.2775C20.0989 19.375 20.3614 19.3375 20.5414 19.195C20.7964 18.985 20.8264 18.64 20.6164 18.415C20.4597 18.25 20.2122 18.19 19.9789 18.265C19.7539 18.34 19.5889 18.5275 19.5664 18.7525C19.5514 18.9775 19.6714 19.18 19.8889 19.2775ZM17.9464 17.2675C18.1564 17.4925 18.5314 17.5075 18.7789 17.305C18.8997 17.2075 18.9739 17.0725 18.9889 16.93C19.0039 16.78 18.9514 16.6375 18.8539 16.5325L17.8039 15.4075C17.5939 15.1825 17.2189 15.1675 16.9714 15.37C16.7164 15.5725 16.6864 15.9175 16.8972 16.1425L17.9464 17.2675ZM15.254 14.395C15.4865 14.5 15.7722 14.4625 15.9665 14.2975C16.244 14.08 16.2815 13.6975 16.049 13.45C15.8765 13.27 15.6065 13.2025 15.3515 13.285C15.104 13.3675 14.924 13.5775 14.9015 13.8175C14.879 14.065 15.0222 14.29 15.254 14.395ZM15.0222 11.1625L21.3814 17.9875C21.9064 18.5425 21.8239 19.405 21.2097 19.9C20.5939 20.4025 19.6714 20.3575 19.1472 19.8025L12.8314 13.0675C12.8676 13.0313 12.9003 12.9915 12.9318 12.9531C12.946 12.9358 12.96 12.9188 12.9739 12.9025H12.9814C13.5889 12.145 14.0089 11.2375 14.1589 10.24C14.1814 10.12 14.1964 9.99997 14.2039 9.87247C14.2189 9.70747 14.2264 9.54247 14.2264 9.37747C14.2264 7.10497 12.8839 5.15497 10.9414 4.26997C11.0314 4.25497 11.1289 4.25497 11.2264 4.25497C13.7097 4.25497 15.7264 6.27247 15.7264 8.75497C15.7264 9.64747 15.4639 10.465 15.0222 11.1625Z" fill="black"/>
</svg>

<svg width="24" height="24" viewBox="0 0 24 24" fill="none" xmlns="http://www.w3.org/2000/svg"><path fill-rule="evenodd" clip-rule="evenodd" d="M11.507 9.955v-.003c.226-1.595-.739-3.242-2.197-3.75a3.463 3.463 0 0 0-1.139-.197 3.16 3.16 0 0 0-1.561.416c.486.658 1.2 1.081 1.952 1.081h.024l.002.001h.014a1.125 1.125 0 0 1 0 2.25 1.124 1.124 0 0 1-1.107-.934 4.187 4.187 0 0 1-1.962-1.34 3.367 3.367 0 0 0-.479 1.836c.025.97.479 1.949 1.186 2.553a.75.75 0 0 1 .223.806l-2.715 8.183.447.81.858-.376.121-.454.424-1.279-.432-.802a.75.75 0 0 1 .359-1.043l.806-.353.075-.23-.373-1.08a.75.75 0 0 1 .298-.873l.927-.606.466-1.415a.751.751 0 0 1 .695-.516c1.581-.037 2.88-1.167 3.088-2.685ZM7.453.825c2.826-.404 4.307.984 4.748 2.627 0 0-.48-.155-1.575-.075-.081-.318-.84-1.456-2.928-1.073-.58.106-1.038.388-1.341.837-.332.493-.443 1.174-.328 1.887a4.756 4.756 0 0 1 3.775-.242c2.146.747 3.516 3.058 3.189 5.376-.285 2.073-1.928 3.657-4 3.936l-.391 1.191a.75.75 0 0 1-.303.393l-.657.43.265.768a.753.753 0 0 1 .004.482l-.263.787a.752.752 0 0 1-.41.45l-.367.162.201.37a.75.75 0 0 1 .051.593l-.689 2.082a1.42 1.42 0 0 1-.783.86l-1.105.486a1.268 1.268 0 0 1-.483.096 1.19 1.19 0 0 1-1.057-.63L2.42 21.52a1.435 1.435 0 0 1-.094-1.137L4.89 12.65a5.08 5.08 0 0 1-1.337-3.296c-.032-1.27.395-2.46 1.184-3.336l-.01-.032a3.98 3.98 0 0 1-.147-.499c-.247-1.178-.058-2.31.532-3.185A3.347 3.347 0 0 1 7.453.824ZM19.89 19.277a.64.64 0 0 0 .652-.083c.255-.21.285-.555.075-.78a.616.616 0 0 0-.637-.15.588.588 0 0 0-.413.488.527.527 0 0 0 .323.524Zm-1.943-2.01c.21.224.585.24.833.037a.56.56 0 0 0 .21-.375.508.508 0 0 0-.135-.398l-1.05-1.124c-.21-.226-.585-.24-.833-.038-.255.203-.285.548-.074.772l1.05 1.125Zm-2.692-2.873a.683.683 0 0 0 .713-.098c.277-.217.315-.6.082-.847a.675.675 0 0 0-.697-.165.643.643 0 0 0-.45.533.578.578 0 0 0 .352.577Zm-.232-3.232 6.36 6.825c.524.555.442 1.417-.172 1.912-.616.503-1.539.458-2.063-.098l-6.316-6.734a1.55 1.55 0 0 0 .1-.115l.043-.05h.007a5.577 5.577 0 0 0 1.178-2.663c.022-.12.037-.24.045-.368A5.602 5.602 0 0 0 10.94 4.27c.09-.014.188-.014.285-.014 2.484 0 4.5 2.017 4.5 4.5a4.47 4.47 0 0 1-.704 2.407Z" fill="currentColor"/></svg>
